X: 7992
T: Connaught Heifers, The
R: reel
M: 4/4
K: Dmixolydian
M:7/8
F2 FG ABG|A2 AG AGE|F2 FG AGF|DG G2 cAG|
F2 FG ABG|A2 AG AGE|F2 DE FGA|G2 EG cAG||
f2 ef dec|A2 BG ABd|f2 ef dec|AG G2 eag|
f2 ef dec|A2 BG ABd|fd ec dBc|AG BG AGE||

